src/images/start/404.svg

<svg width="1440" height="414" viewBox="0 0 1440 414" fill="none" xmlns="http://www.w3.org/2000/svg">
<path d="M437.099 351.829H431.255C430.952 351.829 430.707 351.585 430.707 351.282C430.707 350.981 430.952 350.736 431.255 350.736H437.099C437.402 350.736 437.647 350.981 437.647 351.282C437.647 351.585 437.402 351.829 437.099 351.829Z" fill="white"/>
<path d="M439.13 348.923C438.827 348.923 438.582 348.679 438.582 348.377V342.546C438.582 342.244 438.827 342 439.13 342C439.433 342 439.678 342.244 439.678 342.546V348.377C439.678 348.679 439.433 348.923 439.13 348.923Z" fill="white"/>
<path d="M447.311 351.737H441.468C441.165 351.737 440.92 351.493 440.92 351.191C440.92 350.889 441.165 350.644 441.468 350.644H447.311C447.614 350.644 447.859 350.889 447.859 351.191C447.859 351.493 447.614 351.737 447.311 351.737Z" fill="white"/>
<path d="M439.376 360.458C439.074 360.458 438.828 360.214 438.828 359.912V354.082C438.828 353.78 439.074 353.536 439.376 353.536C439.679 353.536 439.924 353.78 439.924 354.082V359.912C439.924 360.214 439.679 360.458 439.376 360.458Z" fill="white"/>
<path d="M403.121 407.939H399.632C399.329 407.939 399.084 407.695 399.084 407.392C399.084 407.091 399.329 406.846 399.632 406.846H403.121C403.424 406.846 403.669 407.091 403.669 407.392C403.669 407.695 403.424 407.939 403.121 407.939Z" fill="white"/>
<path d="M404.308 406.221C404.005 406.221 403.76 405.977 403.76 405.675V402.193C403.76 401.891 404.005 401.647 404.308 401.647C404.611 401.647 404.855 401.891 404.855 402.193V405.675C404.855 405.977 404.611 406.221 404.308 406.221Z" fill="white"/>
<path d="M409.15 407.877H405.661C405.358 407.877 405.113 407.633 405.113 407.331C405.113 407.029 405.358 406.784 405.661 406.784H409.15C409.453 406.784 409.698 407.029 409.698 407.331C409.698 407.633 409.453 407.877 409.15 407.877Z" fill="white"/>
<path d="M404.431 413.081C404.128 413.081 403.883 412.836 403.883 412.534V409.054C403.883 408.751 404.128 408.507 404.431 408.507C404.734 408.507 404.978 408.751 404.978 409.054V412.534C404.978 412.836 404.734 413.081 404.431 413.081Z" fill="white"/>
<path d="M368.393 359.09H365.548C365.245 359.09 365 358.845 365 358.543C365 358.241 365.245 357.996 365.548 357.996H368.393C368.695 357.996 368.941 358.241 368.941 358.543C368.941 358.845 368.695 359.09 368.393 359.09Z" fill="white"/>
<path d="M369.362 357.683C369.059 357.683 368.814 357.438 368.814 357.136V354.297C368.814 353.995 369.059 353.751 369.362 353.751C369.665 353.751 369.91 353.995 369.91 354.297V357.136C369.91 357.438 369.665 357.683 369.362 357.683Z" fill="white"/>
<path d="M373.315 359.059H370.47C370.167 359.059 369.922 358.814 369.922 358.512C369.922 358.21 370.167 357.965 370.47 357.965H373.315C373.618 357.965 373.863 358.21 373.863 358.512C373.863 358.814 373.618 359.059 373.315 359.059Z" fill="white"/>
<path d="M369.485 363.311C369.183 363.311 368.938 363.067 368.938 362.765V359.927C368.938 359.625 369.183 359.38 369.485 359.38C369.788 359.38 370.033 359.625 370.033 359.927V362.765C370.033 363.067 369.788 363.311 369.485 363.311Z" fill="white"/>
<path d="M1026.39 38.7766H1020.55C1020.24 38.7766 1020 38.5317 1020 38.2298C1020 37.928 1020.24 37.6831 1020.55 37.6831H1026.39C1026.69 37.6831 1026.94 37.928 1026.94 38.2298C1026.94 38.5317 1026.69 38.7766 1026.39 38.7766Z" fill="white"/>
<path d="M1028.42 35.9009C1028.12 35.9009 1027.88 35.656 1027.88 35.3542V29.5242C1027.88 29.2218 1028.12 28.9775 1028.42 28.9775C1028.73 28.9775 1028.97 29.2218 1028.97 29.5242V35.3542C1028.97 35.656 1028.73 35.9009 1028.42 35.9009Z" fill="white"/>
<path d="M1036.48 38.6843H1030.64C1030.34 38.6843 1030.09 38.4394 1030.09 38.1376C1030.09 37.8357 1030.34 37.5908 1030.64 37.5908H1036.48C1036.78 37.5908 1037.03 37.8357 1037.03 38.1376C1037.03 38.4394 1036.78 38.6843 1036.48 38.6843Z" fill="white"/>
<path d="M1028.67 47.4053C1028.37 47.4053 1028.12 47.161 1028.12 46.8586V41.0292C1028.12 40.7268 1028.37 40.4824 1028.67 40.4824C1028.97 40.4824 1029.22 40.7268 1029.22 41.0292V46.8586C1029.22 47.161 1028.97 47.4053 1028.67 47.4053Z" fill="white"/>
<path d="M1064.03 6.29164H1060.54C1060.24 6.29164 1059.99 6.04731 1059.99 5.74545C1059.99 5.4436 1060.24 5.19873 1060.54 5.19873H1064.03C1064.33 5.19873 1064.57 5.4436 1064.57 5.74545C1064.57 6.04731 1064.33 6.29164 1064.03 6.29164Z" fill="white"/>
<path d="M1065.21 4.57434C1064.91 4.57434 1064.67 4.32947 1064.67 4.02816V0.546731C1064.67 0.244331 1064.91 0 1065.21 0C1065.52 0 1065.76 0.244331 1065.76 0.546731V4.02816C1065.76 4.32947 1065.52 4.57434 1065.21 4.57434Z" fill="white"/>
<path d="M1070.06 6.26083H1066.57C1066.26 6.26083 1066.02 6.0165 1066.02 5.7141C1066.02 5.41279 1066.26 5.16791 1066.57 5.16791H1070.06C1070.36 5.16791 1070.6 5.41279 1070.6 5.7141C1070.6 6.0165 1070.36 6.26083 1070.06 6.26083Z" fill="white"/>
<path d="M1065.46 11.4649C1065.16 11.4649 1064.91 11.22 1064.91 10.9182V7.43729C1064.91 7.13544 1065.16 6.89056 1065.46 6.89056C1065.76 6.89056 1066.01 7.13544 1066.01 7.43729V10.9182C1066.01 11.22 1065.76 11.4649 1065.46 11.4649Z" fill="white"/>
<path d="M1114.32 40.8684H1111.48C1111.18 40.8684 1110.93 40.6235 1110.93 40.3216C1110.93 40.0198 1111.18 39.7749 1111.48 39.7749H1114.32C1114.63 39.7749 1114.87 40.0198 1114.87 40.3216C1114.87 40.6235 1114.63 40.8684 1114.32 40.8684Z" fill="white"/>
<path d="M1115.29 39.4615C1114.99 39.4615 1114.75 39.2167 1114.75 38.9148V36.0765C1114.75 35.7747 1114.99 35.5298 1115.29 35.5298C1115.6 35.5298 1115.84 35.7747 1115.84 36.0765V38.9148C1115.84 39.2167 1115.6 39.4615 1115.29 39.4615Z" fill="white"/>
<path d="M1119.25 40.837H1116.4C1116.1 40.837 1115.85 40.5921 1115.85 40.2903C1115.85 39.9884 1116.1 39.7441 1116.4 39.7441H1119.25C1119.55 39.7441 1119.79 39.9884 1119.79 40.2903C1119.79 40.5921 1119.55 40.837 1119.25 40.837Z" fill="white"/>
<path d="M1115.42 45.0602C1115.11 45.0602 1114.87 44.8153 1114.87 44.5134V41.6746C1114.87 41.3733 1115.11 41.1284 1115.42 41.1284C1115.72 41.1284 1115.96 41.3733 1115.96 41.6746V44.5134C1115.96 44.8153 1115.72 45.0602 1115.42 45.0602Z" fill="white"/>
<path d="M1440.27 271.753C1436.06 275.142 1431.4 277.884 1426.07 279.046C1418.2 280.761 1409.73 276.977 1405.35 270.595C1402.8 266.887 1401.83 263.31 1401.98 258.576C1402.17 252.741 1403.93 247.095 1404.8 241.349C1406.45 230.51 1405.94 218.631 1399.31 209.401C1393 200.622 1382.62 195.795 1371.9 195.482C1361.31 195.172 1351.04 199.869 1343.59 207.233C1335.53 215.199 1331.23 225.801 1330.17 236.958C1329.07 248.467 1332.15 259.636 1336.57 270.148C1340.77 280.149 1346.3 290.095 1347.86 300.97C1349.41 311.803 1345.71 323.428 1341.83 333.427C1334.9 351.242 1319.45 368.634 1298.78 367.548C1290.06 367.09 1281.3 362.661 1274.84 356.41C1267.59 349.398 1263.39 340.223 1261.57 330.303C1257.61 308.641 1266.47 286.975 1276.81 268.402C1282.77 257.71 1289.33 247.334 1296.24 237.229C1303.09 227.192 1310.84 217.746 1317.41 207.52C1323.85 197.484 1328.78 186.09 1329.09 174.016C1329.36 163.449 1325.46 152.67 1317.63 145.379C1313.78 141.787 1309.17 139.15 1304.07 137.778C1295.89 135.577 1292.4 148.227 1300.58 150.427C1308.6 152.586 1314.08 159.831 1315.59 168.192C1317.53 178.919 1312.84 189.835 1307.37 198.796C1300.97 209.281 1293.03 218.792 1286.06 228.897C1279.08 239.005 1272.47 249.391 1266.42 260.075C1255.02 280.197 1245.58 303.018 1247.9 326.61C1249.01 337.81 1252.36 348.99 1259.09 358.158C1265.61 367.049 1274.32 373.844 1284.65 377.771C1306.55 386.091 1329.66 375.474 1343.2 357.755C1350.09 348.752 1354.61 338.132 1357.73 327.301C1361.17 315.374 1362.56 303.442 1359.18 291.334C1353.39 270.574 1337.62 251.537 1345.11 228.951C1347.87 220.616 1354.42 213.222 1362.33 210.232C1370.06 207.313 1379.44 208.204 1385.59 213.647C1392.62 219.872 1393.43 230.289 1391.89 239.29C1389.83 251.32 1386.44 263.08 1392.42 274.597C1397.04 283.489 1406.43 290.357 1416.33 292.019C1424.91 293.459 1432.98 291.391 1440.27 287.391V271.753Z" fill="#353333"/>
<path d="M1241.77 155.963L1284.34 176.61C1288.69 178.721 1293.93 176.911 1296.05 172.566L1321.3 120.744C1323.42 116.393 1321.6 111.149 1317.24 109.035L1274.69 88.3955L1241.77 155.963Z" fill="white"/>
<path d="M1237.23 159.442L1240.11 160.836C1242.07 161.788 1244.46 160.964 1245.42 159.003L1279.29 89.492C1280.24 87.5286 1279.42 85.1412 1277.45 84.1874L1274.57 82.7926C1272.61 81.8411 1270.22 82.6656 1269.27 84.6257L1235.4 154.137C1234.44 156.101 1235.27 158.488 1237.23 159.442Z" fill="#575353"/>
<path d="M183.379 304.371C179.148 293.606 171.639 285.231 161.613 279.469C152.447 274.201 142.116 271.139 133.296 265.247C124.985 259.695 120.412 250.567 120.531 240.05C120.66 228.703 125.89 217.963 133.051 209.196C136.913 204.466 141.227 200.135 145.705 195.988C151.918 190.23 142.605 180.971 136.408 186.712C118.224 203.557 101.86 227.076 109.031 253.093C112.206 264.612 120.285 273.183 130.545 278.939C139.785 284.122 150.124 287.221 158.899 293.253C174.377 303.893 178.449 327.05 166.186 342.156C162.726 346.419 158.124 349.068 152.577 349.272C146.822 349.483 141.36 348.287 135.902 346.246C125.816 342.473 117.287 334.9 111.779 325.699C98.8755 304.143 100.023 277.294 96.2245 253.274C94.2222 240.613 91.2656 226.014 82.4429 216.198C74.7448 207.634 63.7823 202.89 52.2993 204.34C41.1478 205.749 30.0269 210.629 22.9813 219.603C15.6169 228.983 13.1369 240.934 13.9838 252.663C14.8269 264.345 17.8958 276.213 23.2897 286.639C28.1659 296.063 34.9338 304.348 41.3499 312.746C47.187 320.385 53.7478 329.26 56.8583 337.645C60.4953 347.45 60.2433 356.281 55.8596 366.179C51.6052 375.785 44.3964 385.442 36.2633 391.528C27.6877 397.944 16.7903 399.834 6.28466 399.874C4.17608 399.881 2.07462 399.809 0 399.671V412.752C7.72709 413.238 15.4854 412.855 23.1194 411.244C34.8028 408.778 44.6922 402.769 52.7792 394.08C61.0459 385.198 67.908 374.3 71.0087 362.499C74.0195 351.039 72.2407 339.871 67.4807 329.187C58.8798 309.881 41.6583 295.915 33.001 276.63C31.0705 272.33 29.3427 265.956 28.27 260.686C27.2111 255.484 26.7328 250.207 27.0747 244.813C27.6745 235.343 32.2494 226.31 40.2888 221.756C48.3966 217.162 57.9885 215.154 65.8629 219.621C70.4576 222.227 74.2945 225.934 76.5412 230.734C79.2304 236.48 80.84 242.857 82.1388 249.041C87.4829 274.478 85.9008 301.082 96.7537 325.247C106.847 347.718 131.679 365.833 157.256 361.913C170.483 359.886 179.586 348.702 183.902 336.747C187.605 326.49 187.363 314.51 183.379 304.371Z" fill="#353333"/>
<path d="M201.959 125.282L173.572 147.337C172.264 148.352 170.362 148.116 169.344 146.812L167.853 144.902C166.835 143.597 167.072 141.699 168.379 140.683L196.766 118.628C198.073 117.612 199.976 117.848 200.994 119.153L202.485 121.063C203.503 122.367 203.266 124.266 201.959 125.282Z" fill="#9B8A60"/>
<path d="M229.89 160.965L201.504 183.02C200.196 184.036 198.293 183.799 197.275 182.495L195.785 180.585C194.767 179.281 195.003 177.382 196.311 176.366L224.698 154.312C226.005 153.296 227.908 153.532 228.926 154.836L230.416 156.746C231.435 158.05 231.198 159.949 229.89 160.965Z" fill="#9B8A60"/>
<path d="M204.619 194.807L167.279 223.818C163.46 226.785 157.952 226.102 154.978 222.291L119.483 176.815C116.508 173.005 117.194 167.51 121.013 164.542L158.353 135.531L204.619 194.807Z" fill="white"/>
<path d="M209.726 197.266L207.202 199.226C205.479 200.565 202.971 200.254 201.628 198.534L154.027 137.548C152.685 135.829 152.997 133.326 154.72 131.987L157.243 130.026C158.967 128.687 161.475 128.998 162.817 130.718L210.419 191.704C211.761 193.424 211.449 195.927 209.726 197.266Z" fill="#575353"/>
</svg>

<svg width="1440" height="414" fill="none" xmlns="http://www.w3.org/2000/svg"><path d="M437.099 351.829h-5.844a.547.547 0 110-1.093h5.844a.547.547 0 110 1.093zm2.031-2.906a.546.546 0 01-.548-.546v-5.831c0-.302.245-.546.548-.546.303 0 .548.244.548.546v5.831a.546.546 0 01-.548.546zm8.181 2.814h-5.843a.546.546 0 110-1.093h5.843a.547.547 0 110 1.093zm-7.935 8.721a.547.547 0 01-.548-.546v-5.83a.547.547 0 011.096 0v5.83a.546.546 0 01-.548.546zm-36.255 47.481h-3.489a.547.547 0 110-1.093h3.489a.547.547 0 110 1.093zm1.187-1.718a.546.546 0 01-.548-.546v-3.482a.546.546 0 011.095 0v3.482a.546.546 0 01-.547.546zm4.842 1.656h-3.489a.546.546 0 110-1.093h3.489a.547.547 0 110 1.093zm-4.719 5.204a.547.547 0 01-.548-.547v-3.48a.547.547 0 111.095 0v3.48a.546.546 0 01-.547.547zm-36.038-53.991h-2.845a.547.547 0 110-1.094h2.845a.548.548 0 110 1.094zm.969-1.407a.547.547 0 01-.548-.547v-2.839c0-.302.245-.546.548-.546.303 0 .548.244.548.546v2.839a.547.547 0 01-.548.547zm3.953 1.376h-2.845a.547.547 0 110-1.094h2.845a.547.547 0 110 1.094zm-3.83 4.252a.546.546 0 01-.547-.546v-2.838a.547.547 0 011.095 0v2.838a.546.546 0 01-.548.546zM1026.39 38.777h-5.84a.545.545 0 01-.55-.547c0-.302.24-.547.55-.547h5.84c.3 0 .55.245.55.547a.55.55 0 01-.55.547zm2.03-2.877c-.3 0-.54-.244-.54-.546v-5.83a.544.544 0 111.09 0v5.83c0 .302-.24.547-.55.547zm8.06 2.784h-5.84a.55.55 0 01-.55-.546.55.55 0 01.55-.547h5.84c.3 0 .55.245.55.547a.55.55 0 01-.55.546zm-7.81 8.721a.55.55 0 01-.55-.546v-5.83a.55.55 0 011.1 0v5.83a.55.55 0 01-.55.546zm35.36-41.113h-3.49a.55.55 0 01-.55-.547.55.55 0 01.55-.546h3.49c.3 0 .54.245.54.546 0 .302-.24.547-.54.547zm1.18-1.718c-.3 0-.54-.245-.54-.546V.547a.544.544 0 111.09 0v3.481c0 .301-.24.546-.55.546zm4.85 1.686h-3.49a.544.544 0 01-.55-.546c0-.301.24-.546.55-.546h3.49c.3 0 .54.245.54.546 0 .302-.24.547-.54.547zm-4.6 5.205a.55.55 0 01-.55-.547v-3.48a.55.55 0 011.1 0v3.48a.55.55 0 01-.55.547zm48.86 29.403h-2.84a.55.55 0 01-.55-.546.55.55 0 01.55-.547h2.84c.31 0 .55.245.55.547 0 .301-.24.546-.55.546zm.97-1.406c-.3 0-.54-.245-.54-.547v-2.838a.544.544 0 111.09 0v2.838c0 .302-.24.547-.55.547zm3.96 1.375h-2.85a.55.55 0 01-.55-.547.55.55 0 01.55-.546h2.85c.3 0 .54.244.54.546 0 .302-.24.547-.54.547zm-3.83 4.223a.545.545 0 01-.55-.547v-2.838a.544.544 0 111.09 0v2.838c0 .302-.24.547-.54.547z" fill="#fff"/><path d="M1440.27 271.753c-4.21 3.389-8.87 6.131-14.2 7.293-7.87 1.715-16.34-2.069-20.72-8.451-2.55-3.708-3.52-7.285-3.37-12.019.19-5.835 1.95-11.481 2.82-17.227 1.65-10.839 1.14-22.718-5.49-31.948-6.31-8.779-16.69-13.606-27.41-13.919-10.59-.31-20.86 4.387-28.31 11.751-8.06 7.966-12.36 18.568-13.42 29.725-1.1 11.509 1.98 22.678 6.4 33.19 4.2 10.001 9.73 19.947 11.29 30.822 1.55 10.833-2.15 22.458-6.03 32.457-6.93 17.815-22.38 35.207-43.05 34.121-8.72-.458-17.48-4.887-23.94-11.138-7.25-7.012-11.45-16.187-13.27-26.107-3.96-21.662 4.9-43.328 15.24-61.901 5.96-10.692 12.52-21.068 19.43-31.173 6.85-10.037 14.6-19.483 21.17-29.709 6.44-10.036 11.37-21.43 11.68-33.504.27-10.567-3.63-21.346-11.46-28.637-3.85-3.592-8.46-6.229-13.56-7.601-8.18-2.201-11.67 10.449-3.49 12.649 8.02 2.159 13.5 9.404 15.01 17.765 1.94 10.727-2.75 21.643-8.22 30.604-6.4 10.485-14.34 19.996-21.31 30.101-6.98 10.108-13.59 20.494-19.64 31.178-11.4 20.122-20.84 42.943-18.52 66.535 1.11 11.2 4.46 22.38 11.19 31.548 6.52 8.891 15.23 15.686 25.56 19.613 21.9 8.32 45.01-2.297 58.55-20.016 6.89-9.003 11.41-19.623 14.53-30.454 3.44-11.927 4.83-23.859 1.45-35.967-5.79-20.76-21.56-39.797-14.07-62.383 2.76-8.335 9.31-15.729 17.22-18.719 7.73-2.919 17.11-2.028 23.26 3.415 7.03 6.225 7.84 16.642 6.3 25.643-2.06 12.03-5.45 23.79.53 35.307 4.62 8.892 14.01 15.76 23.91 17.422 8.58 1.44 16.65-.628 23.94-4.628v-15.638z" fill="#353333"/><path d="M1241.77 155.963l42.57 20.647a8.77 8.77 0 0011.71-4.044l25.25-51.822c2.12-4.351.3-9.595-4.06-11.709l-42.55-20.64-32.92 67.568z" fill="#fff"/><path d="M1237.23 159.442l2.88 1.394c1.96.952 4.35.128 5.31-1.833l33.87-69.511a3.98 3.98 0 00-1.84-5.305l-2.88-1.394c-1.96-.952-4.35-.127-5.3 1.833l-33.87 69.511c-.96 1.964-.13 4.351 1.83 5.305z" fill="#575353"/><path d="M183.379 304.371c-4.231-10.765-11.74-19.14-21.766-24.902-9.166-5.268-19.497-8.33-28.317-14.222-8.311-5.552-12.884-14.68-12.765-25.197.129-11.347 5.359-22.087 12.52-30.854 3.862-4.73 8.176-9.061 12.654-13.208 6.213-5.758-3.1-15.017-9.297-9.276-18.184 16.845-34.548 40.364-27.377 66.381 3.175 11.519 11.254 20.09 21.514 25.846 9.24 5.183 19.579 8.282 28.354 14.314 15.478 10.64 19.55 33.797 7.287 48.903-3.46 4.263-8.062 6.912-13.609 7.116-5.755.211-11.217-.985-16.675-3.026-10.086-3.773-18.615-11.346-24.123-20.547-12.903-21.556-11.756-48.405-15.554-72.425-2.003-12.661-4.96-27.26-13.782-37.076-7.698-8.564-18.66-13.308-30.144-11.858-11.151 1.409-22.272 6.289-29.318 15.263-7.364 9.38-9.844 21.331-8.997 33.06.843 11.682 3.912 23.55 9.306 33.976 4.876 9.424 11.644 17.709 18.06 26.107 5.837 7.639 12.398 16.514 15.508 24.899 3.637 9.805 3.385 18.636-.998 28.534-4.255 9.606-11.464 19.263-19.597 25.349-8.575 6.416-19.473 8.306-29.978 8.346A90.283 90.283 0 010 399.671v13.081c7.727.486 15.485.103 23.12-1.508 11.683-2.466 21.572-8.475 29.66-17.164 8.266-8.882 15.128-19.78 18.229-31.581 3.01-11.46 1.232-22.628-3.528-33.312C58.88 309.881 41.658 295.915 33 276.63c-1.93-4.3-3.658-10.674-4.731-15.944-1.059-5.202-1.537-10.479-1.195-15.873.6-9.47 5.174-18.503 13.214-23.057 8.108-4.594 17.7-6.602 25.574-2.135 4.595 2.606 8.431 6.313 10.678 11.113 2.69 5.746 4.299 12.123 5.598 18.307 5.344 25.437 3.762 52.041 14.615 76.206 10.093 22.471 34.925 40.586 60.502 36.666 13.227-2.027 22.33-13.211 26.646-25.166 3.703-10.257 3.461-22.237-.523-32.376z" fill="#353333"/><path d="M201.959 125.282l-28.387 22.055a3.027 3.027 0 01-4.228-.525l-1.491-1.91a3.011 3.011 0 01.526-4.219l28.387-22.055a3.025 3.025 0 014.228.525l1.491 1.91a3.011 3.011 0 01-.526 4.219zm27.931 35.683l-28.386 22.055a3.027 3.027 0 01-4.229-.525l-1.49-1.91a3.01 3.01 0 01.526-4.219l28.387-22.054a3.026 3.026 0 014.228.524l1.49 1.91a3.01 3.01 0 01-.526 4.219z" fill="#9B8A60"/><path d="M204.619 194.807l-37.34 29.011c-3.819 2.967-9.327 2.284-12.301-1.527l-35.495-45.476c-2.975-3.81-2.289-9.305 1.53-12.273l37.34-29.011 46.266 59.276z" fill="#fff"/><path d="M209.726 197.266l-2.524 1.96a3.99 3.99 0 01-5.574-.692l-47.601-60.986a3.969 3.969 0 01.693-5.561l2.523-1.961a3.99 3.99 0 015.574.692l47.602 60.986a3.97 3.97 0 01-.693 5.562z" fill="#575353"/></svg>
